client/public/assets/icons/standard/display_rich_text.svg

<?xml version="1.0"?><svg xmlns="http://www.w3.org/2000/svg" width="100" height="100" viewBox="0 0 100 100"><path fill="#fff" d="m22 71.8h56c1.1 0 2 0.9 2 2v4c0 1.1-0.9 2-2 2h-56c-1.1 0-2-0.9-2-2v-4c0-1.1 0.9-2 2-2z m0-18h56c1.1 0 2 0.9 2 2v4c0 1.1-0.9 2-2 2h-56c-1.1 0-2-0.9-2-2v-4c0-1.1 0.9-2 2-2z m35.6-18h20.4c1.1 0 2 0.9 2 2v4c0 1.1-0.9 2-2 2h-20.4c-1.1 0-2-0.9-2-2v-4c0-1.1 0.9-2 2-2z m-10 8.6l-9.5-23.4c-0.2-0.4-0.6-0.7-1.1-0.7h-7.2c-0.4 0-0.9 0.3-1 0.7l-8.8 23.4c-0.1 0.4 0.1 1 0.7 1h4.6c0.4 0 0.9-0.4 1-0.8l1.8-5h11.1l2 5c0.1 0.4 0.6 0.8 1 0.8h4.6c0.6 0 0.9-0.5 0.8-1z m-17.4-10.8l2.9-7.4h0.6l3.2 7.4h-6.7z"></path></svg>

<?xml version="1.0" encoding="utf-8"?>
<!-- Generator: Adobe Illustrator 21.1.0, SVG Export Plug-In . SVG Version: 6.00 Build 0)  -->
<svg version="1.1" id="Layer_1" xmlns="http://www.w3.org/2000/svg" xmlns:xlink="http://www.w3.org/1999/xlink" x="0px" y="0px"
	 width="100px" height="100px" viewBox="0 0 100 100" enable-background="new 0 0 100 100" xml:space="preserve">
<path fill="#FFFFFF" d="M22,71.8h56c1.1,0,2,0.9,2,2v4c0,1.1-0.9,2-2,2H22c-1.1,0-2-0.9-2-2v-4C20,72.7,20.9,71.8,22,71.8z"/>
<path fill="#FFFFFF" d="M22,53.8h56c1.1,0,2,0.9,2,2v4c0,1.1-0.9,2-2,2H22c-1.1,0-2-0.9-2-2v-4C20,54.7,20.9,53.8,22,53.8z"/>
<path fill="#FFFFFF" d="M57.6,35.8H78c1.1,0,2,0.9,2,2v4c0,1.1-0.9,2-2,2H57.6c-1.1,0-2-0.9-2-2v-4C55.6,36.7,56.5,35.8,57.6,35.8z"
	/>
<path fill="#FFFFFF" d="M47.6,44.4L38.1,21c-0.2-0.4-0.6-0.7-1.1-0.7h-7.2c-0.4,0-0.9,0.3-1,0.7L20,44.4c-0.1,0.4,0.1,1,0.7,1h4.6
	c0.4,0,0.9-0.4,1-0.8l1.8-5l11.1,0l2,5c0.1,0.4,0.6,0.8,1,0.8h4.6C47.4,45.4,47.7,44.9,47.6,44.4z M30.2,33.6l2.9-7.4h0.6l3.2,7.4
	H30.2z"/>
</svg>
